material/.icons/material/chess-pawn.svg

<svg xmlns="http://www.w3.org/2000/svg" viewBox="0 0 24 24"><path d="M19 22H5v-2h14v2m-3-4L13.2 7.74a2.99 2.99 0 001.54-3.95 2.988 2.988 0 00-3.95-1.54A2.988 2.988 0 009.25 6.2c.3.69.85 1.24 1.54 1.54L8 18h8z"/></svg>

<?xml version="1.0" encoding="UTF-8"?><!DOCTYPE svg PUBLIC "-//W3C//DTD SVG 1.1//EN" "http://www.w3.org/Graphics/SVG/1.1/DTD/svg11.dtd"><svg xmlns="http://www.w3.org/2000/svg" xmlns:xlink="http://www.w3.org/1999/xlink" version="1.1" id="mdi-chess-pawn" width="24" height="24" viewBox="0 0 24 24"><path d="M19,22H5V20H19V22M16,18L13.2,7.74C14.72,7.07 15.41,5.31 14.74,3.79C14.08,2.27 12.31,1.58 10.79,2.25C9.27,2.91 8.58,4.68 9.25,6.2C9.55,6.89 10.1,7.44 10.79,7.74L8,18H16Z" /></svg>
